brandFactory_export/3.Masa/Lengua _3Masa.svg

<?xml version="1.0" encoding="UTF-8"?>
<svg width="24px" height="24px" viewBox="0 0 24 24" version="1.1" xmlns="http://www.w3.org/2000/svg" xmlns:xlink="http://www.w3.org/1999/xlink">
    <title>3.Masa/Lengua _3Masa</title>
    <g id="Symbols" stroke="none" stroke-width="1" fill="none" fill-rule="evenodd">
        <g id="3.Masa/Lengua-_3Masa" fill="#5CB615" fill-rule="nonzero">
            <path d="M12.6319328,16.6890756 C12.6352941,17.0890756 12.302521,17.4184874 11.8957983,17.4184874 L11.892437,17.4184874 C11.4857143,17.4184874 11.1529412,17.0957983 11.1529412,16.6957983 L11.1058824,8.22521008 C11.3579832,8.23193277 11.5966387,8.25882353 11.8588235,8.25882353 C12.1109244,8.25882353 12.3428571,8.23529412 12.5882353,8.22857143 L12.6319328,16.6890756 Z M23.5495798,3.15294118 C23.6369748,3.02521008 23.6605042,2.88067227 23.6571429,2.73613445 C23.6537815,2.59831933 23.6268908,2.46386555 23.5462185,2.34957983 C23.492437,2.26890756 23.4218487,2.20168067 23.3378151,2.14453782 C23.0420168,1.95294118 22.6655462,2.00672269 22.4201681,2.24201681 C22.3831933,2.27563025 22.3394958,2.30588235 22.3092437,2.34957983 C21.6571429,3.3210084 20.8235294,4.11764706 19.8453782,4.77310924 C17.8420168,6.11092437 15.1798319,6.80336134 11.8554622,6.80336134 C9.19327731,6.80336134 6.92436975,6.36638655 5.1092437,5.50588235 C3.81848739,4.89411765 2.75294118,4.04369748 1.89915966,2.99831933 C1.72436975,2.78319328 1.54621849,2.57142857 1.39159664,2.3394958 C1.34453782,2.27563025 1.28739496,2.22857143 1.22689076,2.18151261 C0.981512605,1.98991597 0.638655462,1.95630252 0.36302521,2.13445378 C0.292436975,2.18151261 0.242016807,2.23865546 0.191596639,2.30252101 C0.00336134454,2.53781513 -0.0268907563,2.87731092 0.144537815,3.14621849 C0.403361345,3.52605042 0.685714286,3.88571429 0.988235294,4.22521008 C1.08571429,4.3394958 1.2,4.43697479 1.30420168,4.54453782 C1.5092437,4.75630252 1.71428571,4.96806723 1.93613445,5.16302521 C2.0907563,5.29747899 2.25546218,5.41848739 2.42016807,5.54285714 C2.61848739,5.69747899 2.81680672,5.85546218 3.03193277,5.99663866 C3.19663866,6.10756303 3.37142857,6.20504202 3.54285714,6.3092437 C3.70084034,6.40336134 3.8487395,6.50756303 4.01344538,6.59495798 C3.93277311,7.57310924 3.89579832,8.65210084 3.89579832,9.88235294 C3.89579832,14.3159664 4.42352941,17.8252101 6.43697479,19.8352941 C7.64369748,21.0420168 9.38487395,21.7042017 11.8621849,21.7042017 C12.2756303,21.7042017 12.6689076,21.6840336 13.0453782,21.6504202 C13.0991597,21.6470588 13.1428571,21.6336134 13.1932773,21.6268908 C13.5092437,21.589916 13.8151261,21.5495798 14.1042017,21.4890756 C18.789916,20.487395 19.8285714,16.0907563 19.8285714,9.88235294 C19.8285714,8.65210084 19.7882353,7.59663866 19.7109244,6.63529412 C19.7109244,6.61512605 19.7109244,6.60504202 19.7008403,6.58823529 C19.794958,6.53781513 19.8789916,6.47731092 19.9731092,6.42689076 C20.1680672,6.31596639 20.3630252,6.20168067 20.5512605,6.08067227 C20.7865546,5.92941176 21.0117647,5.76470588 21.2302521,5.59663866 C21.3781513,5.48571429 21.5260504,5.37142857 21.6672269,5.25378151 C21.9092437,5.04537815 22.1378151,4.82352941 22.3596639,4.59495798 C22.4638655,4.48739496 22.5747899,4.38655462 22.6756303,4.27563025 C22.9848739,3.92605042 23.2773109,3.55966387 23.5428571,3.16638655 L23.5495798,3.15294118 L23.5495798,3.15294118 Z" id="Lengua-_3Masa"></path>
        </g>
    </g>
</svg>

<svg width="24" height="24" viewBox="0 0 24 24" xmlns="http://www.w3.org/2000/svg"><path d="M12.632 16.69c.003.4-.33.728-.736.728h-.004a.732.732 0 01-.74-.722l-.046-8.47c.252.006.49.033.753.033.252 0 .484-.024.73-.03l.043 8.46zM23.55 3.152a.688.688 0 00.107-.417.682.682 0 00-.32-.591.741.741 0 00-.917.097c-.037.034-.08.064-.11.108-.653.971-1.486 1.768-2.465 2.423-2.003 1.338-4.665 2.03-7.99 2.03-2.662 0-4.93-.437-6.746-1.297A9.17 9.17 0 011.9 2.998c-.175-.215-.353-.427-.507-.659a.814.814 0 00-.165-.157.742.742 0 00-.864-.048.74.74 0 00-.171.169.727.727 0 00-.047.843c.258.38.54.74.843 1.08.098.113.212.211.316.319.205.211.41.423.632.618.155.134.32.255.484.38.198.154.397.312.612.454.165.11.34.208.51.312.159.094.307.199.471.286-.08.978-.117 2.057-.117 3.287 0 4.434.528 7.943 2.541 9.953 1.207 1.207 2.948 1.87 5.425 1.87.414 0 .807-.021 1.183-.055.054-.003.098-.016.148-.023.316-.037.622-.077.911-.138 4.686-1.002 5.725-5.398 5.725-11.607 0-1.23-.04-2.285-.118-3.247 0-.02 0-.03-.01-.047.094-.05.178-.11.272-.161.195-.111.39-.225.578-.346.236-.152.46-.316.68-.484.147-.111.295-.226.436-.343.242-.209.47-.43.693-.659.104-.108.215-.208.316-.32.309-.349.601-.715.867-1.109l.007-.013z" fill="#5CB615" fill-rule="nonzero"/></svg>
